wp-content/uploads/2020/02/icon-direct-mail.svg

<svg viewBox="0 0 20 20" xmlns="http://www.w3.org/2000/svg"><path d="m18.43 2.71a.37.37 0 0 0 -.38-.06l-16.14 6.58a.79.79 0 0 0 -.47.77.78.78 0 0 0 .56.71l6.36 1.92.22 4.37a.38.38 0 0 0 .25.33h.12a.37.37 0 0 0 .28-.13l2.27-2.51 3.21 2.31a.78.78 0 0 0 .45.14.8.8 0 0 0 .77-.63l2.63-13.43a.38.38 0 0 0 -.13-.37zm-9.83 9.21-6.49-1.92.15-.06 14.56-5.94zm.68 4.16-.16-3 1.76 1.22zm8.24-11.6-2.33 11.89h-.07l-5.82-4 8.21-7.94z" fill="#010101"/></svg>

<?xml version="1.0" encoding="utf-8"?><svg xmlns="http://www.w3.org/2000/svg" viewBox="0 0 20 20"><title>icon--direct-mail</title><path d="M18.43,2.71a.37.37,0,0,0-.38-.06L1.91,9.23a.79.79,0,0,0-.47.77.78.78,0,0,0,.56.71l6.36,1.92v0L8.58,17a.38.38,0,0,0,.25.33l.12,0a.37.37,0,0,0,.28-.13l2.27-2.51,0,0L14.71,17a.78.78,0,0,0,.45.14.8.8,0,0,0,.77-.63L18.56,3.08A.38.38,0,0,0,18.43,2.71ZM8.6,11.92h0L2.11,10l.15-.06L16.82,4Zm.68,4.16-.16-3,1.76,1.22Zm8.24-11.6L15.19,16.37l-.07,0-5.82-4,0,0,8.21-7.94Z" fill="#010101"/></svg>
